X:1
T: The Wife, She Brewed It
C:
R:Strathspey
Q: 128
K:D
M:4/4
L:1/16
|:A2|d4 c3d B3d A4|d4 f3a d'4 c'3d'|d4 c3d B3d A4|ee3 f3d e4 a4|
d4 c3d B3c A4|dd3 f3a d'4 a4|b3a b3c' d'3a f3d|e3d e3f d6 a2|
f3g a3f d3e f3d|Be3 e3c d2c2 B2A2|d3e f3g f3g a3b|af3 e3d e4 a3g|
f3g a3f d3e f3d|Be3 e3c d2c2 B2A2|d2e2 f2g2 a2b2 c'2d'2|af3 e3f d6:|
